X: 21363
T: Kerry Jig, The
R: slide
M: 12/8
K: Adorian
|:~A3 AGE AEA AGE|~G3 GBA GED DEG|
AEA ABc dBA ~G3|1 BGG dBG cec ~d3:|2 BGG dBG ~c3 Bcd||
|:~e3 e2d cde g3|GBA G2A GED DEG|
AEA ABc dBA ~G3|1 BGG dBG cec ~d3:|2 BGG dBG ~c3 Bcd||

